ladder.svg

<svg fill="currentColor" viewBox="0 0 24 24"><path d="M14 1v2h-4V1H8v21h2v-2h4v2h2V1zm0 4v3h-4V5zm0 5v3h-4v-3zm-4 8v-3h4v3z"/></svg>

<svg  viewBox="0 0 24 24" fill="currentColor"><path  d="M14 1V3H10V1H8V22H10V20H14V22H16V1H14M14 5V8H10V5H14M14 10V13H10V10H14M10 18V15H14V18H10Z"/></svg>
